app/assets/v2/images/vision/market.svg

<?xml version="1.0" encoding="UTF-8"?>
<svg width="17px" height="17px" viewBox="0 0 17 17" version="1.1" xmlns="http://www.w3.org/2000/svg" xmlns:xlink="http://www.w3.org/1999/xlink">
    <!-- Generator: Sketch 50.2 (55047) - http://www.bohemiancoding.com/sketch -->
    <title>Market</title>
    <desc>Created with Sketch.</desc>
    <defs>
        <polygon id="path-1" points="0 0 16.9806625 0 16.9806625 9.96222642 0 9.96222642"></polygon>
        <polygon id="path-3" points="3.82022472e-05 0.074037037 17 0.074037037 17 10 3.82022472e-05 10"></polygon>
    </defs>
    <g id="Module-02-Templates" stroke="none" stroke-width="1" fill="none" fill-rule="evenodd">
        <g id="Gitcoin-Vision" transform="translate(-794.000000, -3258.000000)">
            <g id="Long-Term-Vision" transform="translate(-140.000000, 2841.000000)">
                <g id="2018" transform="translate(810.000000, 292.000000)">
                    <g id="Market" transform="translate(124.000000, 125.000000)">
                        <path d="M12,6.5 C12,6.77941176 12.2205882,7 12.5,7 C12.7794118,7 13,6.77941176 13,6.5 C13,6.22058824 12.7794118,6 12.5,6 C12.2205882,6.01470588 12,6.23529412 12,6.5" id="Fill-1" fill="#15EF91"></path>
                        <path d="M10,10.5 C10,10.7794118 10.2205882,11 10.5,11 C10.7794118,11 11,10.7794118 11,10.5 C11,10.2205882 10.7794118,10 10.5,10 C10.2205882,10 10,10.2205882 10,10.5" id="Fill-3" fill="#15EF91"></path>
                        <path d="M6,7.5 C6,7.77941176 6.22058824,8 6.5,8 C6.77941176,8 7,7.77941176 7,7.5 C7,7.22058824 6.77941176,7 6.5,7 C6.22058824,7.01470588 6,7.23529412 6,7.5" id="Fill-5" fill="#15EF91"></path>
                        <g id="Group-9">
                            <mask id="mask-2" fill="white">
                                <use xlink:href="#path-1"></use>
                            </mask>
                            <g id="Clip-8"></g>
                            <path d="M3.74770795,9.22637736 C3.99884432,9.22637736 4.2306625,9.28298113 4.4431625,9.37732075 L5.48634432,8.01883019 C5.35111705,7.79241509 5.27384432,7.52826415 5.27384432,7.24524528 C5.27384432,6.37732075 5.98861705,5.67920755 6.87725341,5.67920755 C7.76588977,5.67920755 8.4806625,6.37732075 8.4806625,7.24524528 C8.4806625,7.43392453 8.44202614,7.60373585 8.38407159,7.75467925 L9.92952614,8.99996226 C10.122708,8.90562264 10.3545261,8.86788679 10.5863443,8.86788679 C10.7022534,8.86788679 10.8181625,8.88675472 10.9340716,8.90562264 L11.9772534,7.33958491 C11.726117,7.05656604 11.5522534,6.69807547 11.5522534,6.28298113 C11.5522534,5.4150566 12.2670261,4.7169434 13.1556625,4.7169434 C13.9283898,4.7169434 14.5658898,5.24524528 14.7204352,5.94335849 L16.9806625,5.94335849 C15.8795261,2.50939623 12.5954352,-3.77358491e-05 8.6931625,-3.77358491e-05 C3.88293523,-3.77358491e-05 -1.93181818e-05,3.79241509 -1.93181818e-05,8.4905283 C-1.93181818e-05,8.69807547 0.0192988636,8.90562264 0.0192988636,9.09430189 C0.598844318,9.32071698 1.56475341,9.67920755 2.35679886,9.96222642 C2.64657159,9.52826415 3.14884432,9.22637736 3.74770795,9.22637736" id="Fill-7" fill="#15EF91" mask="url(#mask-2)"></path>
                        </g>
                        <g id="Group-12" transform="translate(0.000000, 7.000000)">
                            <mask id="mask-4" fill="white">
                                <use xlink:href="#path-3"></use>
                            </mask>
                            <g id="Clip-11"></g>
                            <path d="M16.8472292,0.074037037 L14.3067798,0.074037037 C14.0775663,0.629592593 13.5045326,1.037 12.8359933,1.037 C12.6831843,1.037 12.5494764,1.01848148 12.4157685,0.981444444 L11.3841169,2.46292593 C11.6899258,2.7407037 11.8809371,3.12959259 11.8809371,3.57403704 C11.8809371,4.42588889 11.1741955,5.11107407 10.2955438,5.11107407 C9.41689213,5.11107407 8.70995955,4.42588889 8.70995955,3.57403704 C8.70995955,3.31477778 8.76745393,3.07403704 8.90097079,2.85181481 L7.48767865,1.72218519 C7.23936404,1.88885185 6.93374607,1.98144444 6.62812809,1.98144444 C6.37981348,1.98144444 6.1506,1.92588889 5.94048764,1.8332963 L4.90902697,3.16662963 C5.04273483,3.38885185 5.11913933,3.64811111 5.11913933,3.92588889 C5.11913933,4.77774074 4.41239775,5.46311111 3.53374607,5.46311111 C2.69329663,5.46311111 2.00565618,4.8332963 1.94835281,4.037 C1.26071236,3.77774074 0.515768539,3.49996296 3.82022472e-05,3.31477778 C0.764083146,7.11107407 4.24048764,10.0001481 8.40453258,10.0001481 C13.1607124,10.0001481 17.0000382,6.27774074 17.0000382,1.66662963 C17.0000382,1.12959259 16.9427348,0.592555556 16.8472292,0.074037037" id="Fill-10" fill="#15EF91" mask="url(#mask-4)"></path>
                        </g>
                        <path d="M3,10.5 C3,10.7794118 3.22058824,11 3.5,11 C3.77941176,11 4,10.7794118 4,10.5 C4,10.2205882 3.77941176,10 3.5,10 C3.22058824,10 3,10.2205882 3,10.5" id="Fill-13" fill="#15EF91"></path>
                    </g>
                </g>
            </g>
        </g>
    </g>
</svg>

<svg width="17" height="17" xmlns="http://www.w3.org/2000/svg" xmlns:xlink="http://www.w3.org/1999/xlink"><defs><path id="a" d="M0 0h16.98v9.962H0z"/><path id="c" d="M0 .074h17V10H0z"/></defs><g fill="none" fill-rule="evenodd"><path d="M12 6.5c0 .28.22.5.5.5s.5-.22.5-.5-.22-.5-.5-.5a.515.515 0 0 0-.5.5M10 10.5c0 .28.22.5.5.5s.5-.22.5-.5-.22-.5-.5-.5-.5.22-.5.5M6 7.5c0 .28.22.5.5.5s.5-.22.5-.5-.22-.5-.5-.5a.515.515 0 0 0-.5.5" fill="#15EF91"/><g><mask id="b" fill="#fff"><use xlink:href="#a"/></mask><path d="M3.748 9.226a1.7 1.7 0 0 1 .695.151L5.486 8.02a1.502 1.502 0 0 1-.212-.774c0-.868.715-1.566 1.603-1.566.889 0 1.604.698 1.604 1.566 0 .189-.039.359-.097.51L9.93 9c.193-.094.425-.132.656-.132.116 0 .232.019.348.038l1.043-1.566c-.25-.283-.425-.642-.425-1.057 0-.868.715-1.566 1.604-1.566.772 0 1.41.528 1.564 1.226h2.26C15.88 2.51 12.596 0 8.694 0 3.883 0 0 3.792 0 8.49c0 .208.02.416.02.604.579.227 1.545.585 2.337.868a1.66 1.66 0 0 1 1.39-.736" fill="#15EF91" mask="url(#b)"/></g><g transform="translate(0 7)"><mask id="d" fill="#fff"><use xlink:href="#c"/></mask><path d="M16.847.074h-2.54c-.23.556-.802.963-1.471.963-.153 0-.287-.019-.42-.056l-1.032 1.482c.306.278.497.667.497 1.111 0 .852-.707 1.537-1.585 1.537-.88 0-1.586-.685-1.586-1.537 0-.26.057-.5.191-.722l-1.413-1.13c-.249.167-.554.26-.86.26-.248 0-.477-.056-.688-.149L4.91 3.167c.134.222.21.481.21.759 0 .852-.707 1.537-1.585 1.537-.84 0-1.528-.63-1.586-1.426C1.261 3.777.516 3.5 0 3.315.764 7.11 4.24 10 8.405 10 13.16 10 17 6.278 17 1.667c0-.537-.057-1.074-.153-1.593" fill="#15EF91" mask="url(#d)"/></g><path d="M3 10.5c0 .28.22.5.5.5s.5-.22.5-.5-.22-.5-.5-.5-.5.22-.5.5" fill="#15EF91"/></g></svg>
